system-design/final-project/img/profile-icon.svg

<?xml version="1.0" encoding="utf-8"?>
<!-- Generator: Adobe Illustrator 24.2.3, SVG Export Plug-In . SVG Version: 6.00 Build 0)  -->
<svg version="1.1" id="Layer_1" xmlns="http://www.w3.org/2000/svg" xmlns:xlink="http://www.w3.org/1999/xlink" x="0px" y="0px"
	 viewBox="0 0 48 48" style="enable-background:new 0 0 48 48;" xml:space="preserve">
<style type="text/css">
	.st0{fill:#707070;}
</style>
<path class="st0" d="M24,21c-5.5,0-10-4.5-10-10S18.5,1,24,1s10,4.5,10,10S29.5,21,24,21z M24,5c-3.3,0-6,2.7-6,6s2.7,6,6,6
	s6-2.7,6-6S27.3,5,24,5z"/>
<path class="st0" d="M42,47H6c-1.1,0-2-0.9-2-2v-6c0-8.8,7.2-16,16-16h8c8.8,0,16,7.2,16,16v6C44,46.1,43.1,47,42,47z M8,43h32v-4
	c0-6.6-5.4-12-12-12h-8c-6.6,0-12,5.4-12,12V43z"/>
</svg>

<?xml version="1.0" ?><svg data-name="Layer 1" id="Layer_1" viewBox="0 0 48 48" xmlns="http://www.w3.org/2000/svg"><title/><path d="M24,21A10,10,0,1,1,34,11,10,10,0,0,1,24,21ZM24,5a6,6,0,1,0,6,6A6,6,0,0,0,24,5Z"/><path d="M42,47H6a2,2,0,0,1-2-2V39A16,16,0,0,1,20,23h8A16,16,0,0,1,44,39v6A2,2,0,0,1,42,47ZM8,43H40V39A12,12,0,0,0,28,27H20A12,12,0,0,0,8,39Z"/></svg>
